X: 77
T: Pollonesse #77
M: 3/4
L: 1/16
K: Bb
Q:120
BABc B2F2 D2B,2|BABc B2F2 D2B,2|B4d2Bd f2df|g2a2 b4 B2e2|dcBA B4B,4:|
f=efg f2c2 A2F2|f=efg f2c2 A2F2|f4 b2ag a2gf|=efga g4 f4|f2b2 b2a2 a2g2|
g2f2 f2e2 e2d2|d2cd e2d2 c2B2|B2AB cBAG F4|BABc B2F2 D2B,2|
BABc B2F2 D2B,2|B4d2Bd f2df|g2a2 b4 B2e2|dcBA B4B,4:|

